resources/svg/hospital-square-sign-o.svg

<svg xmlns="http://www.w3.org/2000/svg" data-name="Layer 1" viewBox="0 0 24 24" fill="currentColor" stroke="none"><path d="M15 6a1 1 0 0 0-1 1v4h-4V7a1 1 0 0 0-2 0v10a1 1 0 0 0 2 0v-4h4v4a1 1 0 0 0 2 0V7a1 1 0 0 0-1-1Zm4-4H5a3.003 3.003 0 0 0-3 3v14a3.003 3.003 0 0 0 3 3h14a3.003 3.003 0 0 0 3-3V5a3.003 3.003 0 0 0-3-3Zm1 17a1.001 1.001 0 0 1-1 1H5a1.001 1.001 0 0 1-1-1V5a1.001 1.001 0 0 1 1-1h14a1.001 1.001 0 0 1 1 1Z"/></svg>

<svg xmlns="http://www.w3.org/2000/svg" data-name="Layer 1" viewBox="0 0 24 24" fill="currentColor" stroke="none"><path d="M15,6a.99974.99974,0,0,0-1,1v4H10V7A1,1,0,0,0,8,7V17a1,1,0,0,0,2,0V13h4v4a1,1,0,0,0,2,0V7A.99974.99974,0,0,0,15,6Zm4-4H5A3.00328,3.00328,0,0,0,2,5V19a3.00328,3.00328,0,0,0,3,3H19a3.00328,3.00328,0,0,0,3-3V5A3.00328,3.00328,0,0,0,19,2Zm1,17a1.001,1.001,0,0,1-1,1H5a1.001,1.001,0,0,1-1-1V5A1.001,1.001,0,0,1,5,4H19a1.001,1.001,0,0,1,1,1Z"/></svg>
